!!!!SEGMENT: pl-kk--kk-i-40--010-005_massaino-tiburzio--missa-sagitta-ionathe-agnus-dei.krn
!!!cenid: 16xx:1318
!!!COM: Massaino, Tiburzio
!!!COM-rismID: pe30005207
!!!CDT: <1550->1608
!!!CNT: Italian
!!!OPR: Missa Sagitta Ionathe
!!!OTL: Agnus Dei
!!!OMV: 005
!!!PDT:
!!!AGN: Sacred; Mass
!!!SMS-siglum: PL-Kk
!!!SMS-shelfmark: Kk.I.40
!!!SMS-shelfwork: 010-005 M
!!!SMS-variant:
!!!SMS-altvar:
!!!NIFC-rismSourceID: 1001154532
!!!NIFC-islandoraID: pl-kk:2717
!!!URL-pdf-islandora: https://repozytorium.nifc.pl/islandora/object/pl-kk%3A2717/datastream/PDF/view
!!!URL-scan: https://polish.musicsources.pl/pl/lokalizacje/galeria/rekopisy/6010 @EN{Scan on Polish Music Herritage in Open Access Website} @PL{Skany w portalu Dziedzictwo Muzyki Polskiej w otwartym dostępie}
!!!ONB-nifc: UWAGA: części Mszy: 1. Kyrie, 2. Et in terra, 3. Sanctus, 4. Benedictus, 5. Agnus Dei. Skan 0013-0014
!!!AIN: 1 empty
!!!key:
**kern	**text
*Iempty	*
*I"Baſso Ripieno.	*
*I'B rip	*
*clefF4	*
*ok[b-b-]	*
*k[b-]	*
*g:	*
*M2/1	*
*met(C|)	*
=1-	=1-
00r	.
=2-	=2-
.	.
=3-	=3-
!LO:TX:t=P:problem=kreska pseudotaktowa	!
0r	.
=4-	=4-
*2\right	*
2.G\	A-
!LO:TX:t=P:problem=kreska pseudotaktowa	!
4A\	.
2B-\	.
4BB-/	.
4C/	.
=5-	=5-
2D\	.
2E-X\	-gn(us)
!LO:TX:t=P:problem=kreska pseudotaktowa	!
[<0D	De-
=6-	=6-
.	.
0D]	.
=7-	=7-
.	.
!LO:TX:t=P:problem=kreska pseudotaktowa	!
0GG	-i
=8-	=8-
.	.
0r	.
=9-	=9-
.	.
!LO:TX:t=P:problem=kreska pseudotaktowa	!
1r	.
=10-	=10-
2r	.
2G\	Qui
!LO:TX:t=P:problem=kreska pseudotaktowa	!
1G	tol-
=11-	=11-
!LO:TX:t=P:global:problem=oddech jako rozdzielacz słów	!
2F,<\	-lis
2D\	p(ec)-
2E-X\	-(ca)-
2E-\	-ta
=12-	=12-
0D	mun-
=13-	=13-
!LO:TX:t=P:problem=kreska pseudotaktowa	!
1GG,<	-di
00r	.
=14-	=14-
.	.
=15-	=15-
.	.
!LO:TX:t=P:problem=kreska pseudotaktowa	!
1r	.
=16-	=16-
1.BB-	mi-
!LO:TX:t=P:problem=kreska pseudotaktowa	!
2F\	-ſe-
=17-	=17-
2G\	-re-
2D\	-re
1GG	no-
=18-	=18-
!LO:TX:t=P:problem=kreska pseudotaktowa	!
1D,<	-bis
!LO:TX:t=P:problem=kreska pseudotaktowa	!
00r	.
=19-	=19-
.	.
=20-	=20-
.	.
1.B-	mi-
=21-	=21-
.	.
*custos:G	*
!LO:TX:t=P:problem=kreska pseudotaktowa	!
2F\	-se-
!LO:LB:g=original	!
2G\	-re-
2G\	-re
=22-	=22-
!LO:TX:t=P:problem=kreska pseudotaktowa	!
[<0D	no-
=23-	=23-
!LO:TX:t=P:problem=kreska pseudotaktowa	!
0D]	.
=24-	=24-
!LO:TX:t=P:problem=kreska pseudotaktowa	!
0GG;	-bis.
=25||-	=25||-
*M2/1	*
*met(C|)	*
!LO:TX:b:t=Agn(us)	!
00r	.
=26-	=26-
.	.
=27-	=27-
00r	.
=28-	=28-
.	.
=29-	=29-
0r	.
=30-	=30-
*M3/2	*
1B-	Mi-
!LO:TX:t=P:problem=kreska pseudotaktowa	!
2BB-/	-se-
=31-	=31-
1F	-re-
!LO:TX:t=P:problem=kreska pseudotaktowa	!
2F\	-re
=32-	=32-
*	*ij
2.G\	Mi-
4G\	-se-
!LO:TX:t=P:problem=kreska pseudotaktowa	!
2G\	-re-
=33-	=33-
2D,<\	-re
*	*Xij
2D\	mi-
!LO:TX:t=P:problem=kreska pseudotaktowa	!
2D\	-ſe-
=34-	=34-
2.BB-/	-re-
4AA/	.
!LO:TX:t=P:problem=kreska pseudotaktowa	!
2GG/	-re
=35-	=35-
0.C	no-
=36-	=36-
.	.
!LO:TX:a:B:t=Agnus 3tium\nut Supra	!
!LO:N:vis=0.	!
1.GG;>	-bis.
=-	=-
*-	*-
!!!RDF**kern: < = below
!!!RDF**kern: > = above
!!!ENC: Marta Chmielewska
!!!END: 2021-08-02
!!!ENC: Tomasz Grochalski
!!!END: 2021-07-05
